!!!OTL: Jack the Sailor
!!!ONM: 39.
**kern
*clefG2
!Modal -- Conklin/Pearce 
*k[b-]
*d:
*M3/4
*MM120
{4c
=1
4f
4f
8f
8f
=2
4f
4g
4a
=3
4c
4c
4c
=4
4c
4r}
{4c
=5
4g
4g
4g
=6
4g
4a
4b-
=7
4d
4.d
8d
=8
4.d
8r}
{8c
8c
=9
4f
4g
8a
8a
=10
4b-
4d
4d
=11
4d
4c
8e
8e
=12
4.d
8r}
{4e
=13
4e
4c
4e
=14
4g
4e
4f
=15
4f
4g
4f
=16
4e}
{4.d
8c
=17||
4.f
8f
8f
8f
=18
4f
4g
4a
=19
4c
4c
4c
=20
4c}
{4d
4e
=21
4.g
8g
8g
8g
=22
4g
4a
4b-
=23
4d
4d
4d
=24
2d}
==
*-
!!!CNT: Folksongs of Maritime Canada
!!!MRD: 1928///-1932///
!!!OCL: Helen Creighton
!!!YOR: Songs and Ballads from Nova Scotia
!!!PPR: J.M. Dent & Sons, Limited
!!!PPP: Toronto, Canada
!!!PDT: 1932///
!!!reprint: Dover Publications, 1992: ISBN 0-486-21703-5
!!!ENC1: Craig Stuart Sapp (music and bibliographic data)                       
!!!ENC2: Marcus Pearce (phrase markings and key designations)                   
!!!ENC3: Darrell Conklin (phrase markings and key designations)   
!!!END: 2002/04/10/
!!!EEV: 2004/06/05
!!!PPG: 78
!!!EFL: 39/152
!!!ARE: Canada; Nova Scotia
!!!verses: 1
!!!VTS: 3099043767
